**harmony	**harte	**kern	**silbe	**rhyme	**timestamp	**phrase
*M4/4	*M4/4	*ICvox	*	*	*	*
*	*	*VRlead	*	*	*	*
*	*	*Hstimme	*	*	*	*
*E:	*E:	*E:	*	*	*	*
*	*	*M4/4	*	*	*	*
*	*	*clefG2	*	*	*	*
1r;	1r	r;	.	.	0	.
=1	=1	=1	=1	=1	=1	=1
*>Letter>A	*>Letter>A	*>Letter>A	*>Letter>A	*>Letter>A	*>Letter>A	*>Letter>A
*>Label>Intro	*>Label>Intro	*>Label>Intro	*>Label>Intro	*>Label>Intro	*>Label>Intro	*>Label>Intro
2EM	E:maj	1r	.	.	0.789	newline
2C#mm	C#:min7	.	.	.	2.063	.
=2	=2	=2	=2	=2	=2	=2
2F#mm	F#:min9	1r	.	.	3.336	.
2BMm	B:maj6(b7)	.	.	.	4.609	.
=3	=3	=3	=3	=3	=3	=3
2EM	E:maj	1r	.	.	5.882	newline
2C#mm	C#:min7	.	.	.	7.135	.
=4	=4	=4	=4	=4	=4	=4
2F#mm	F#:min9	1r	.	.	8.388	.
2BMm	B:maj6(b7)	.	.	.	9.641	.
=5	=5	=5	=5	=5	=5	=5
2EM	E:maj	1r	.	.	10.894	.
2C#mm	C#:min7	.	.	.	12.147	.
=6	=6	=6	=6	=6	=6	=6
2F#mm	F#:min9	1r	.	.	13.4	.
2BMm	B:maj6(b7)	.	.	.	14.653	.
=7	=7	=7	=7	=7	=7	=7
*>Letter>B	*>Letter>B	*>Letter>B	*>Letter>B	*>Letter>B	*>Letter>B	*>Letter>B
*>Label>Verse	*>Label>Verse	*>Label>Verse	*>Label>Verse	*>Label>Verse	*>Label>Verse	*>Label>Verse
2EM	E:maj	8r	.	.	15.906	newline
.	.	8ee	You've	.	.	.
.	.	8cc#	got	.	.	.
.	.	8b	a	.	.	.
2C#mm	C#:min7	8g#	cute	.	17.155	.
.	.	8b	way	.	.	.
.	.	8cc#	of	.	.	.
.	.	8g#	talk-	(A	.	.
=8	=8	=8	=8	=8	=8	=8
2F#mm	F#:min9	8f#	_	.	18.405	.
.	.	4.e	-in	a)	.	.
2BMm	B:maj6(b7)	2r	.	.	19.655	.
=9	=9	=9	=9	=9	=9	=9
2EM	E:maj	8r	.	.	20.905	.
.	.	8ee	You	.	.	.
.	.	8cc#	got	.	.	.
.	.	8b	the	.	.	.
2C#mm	C#:min7	8g#	bet-	.	22.154	.
.	.	8b	-ter	.	.	.
.	.	8cc#	of	.	.	.
.	.	[8b	me	B	.	.
=10	=10	=10	=10	=10	=10	=10
2F#mm	F#:min9	8b]	_	.	23.404	.
.	.	8r	.	.	.	.
.	.	4r	.	.	.	.
2BMm	B:maj6(b7)	2r	.	.	24.654	.
=11	=11	=11	=11	=11	=11	=11
2EM	E:maj	8r	.	.	25.903	newline
.	.	8ee	Just	.	.	.
.	.	8cc#	snap	.	.	.
.	.	8b	your	.	.	.
2C#mm	C#:min7	8g#	fing-	.	27.146	.
.	.	8b	-ers	.	.	.
.	.	16cc#	and	.	.	.
.	.	8.ee	I'm	.	.	.
=12	=12	=12	=12	=12	=12	=12
2F#mm	F#:min9	8g#	walk-	(A	28.39	.
.	.	8f#	_	.	.	.
.	.	4e	-in	a)	.	.
2BMm	B:maj6(b7)	4r	.	.	29.633	.
.	.	16e	like	.	.	.
.	.	8.f#	a	.	.	.
=13	=13	=13	=13	=13	=13	=13
2EM	E:maj	16f#	dog	.	30.876	.
.	.	[16g#	_	.	.	.
.	.	8g#_	_	.	.	.
.	.	8.g#]	_	.	.	.
.	.	[16cc#	hang-	.	.	.
2C#mm	C#:min7	8cc#]	_	.	32.119	.
.	.	8b	-in	.	.	.
.	.	16g#	on	.	.	.
.	.	8f#	your	.	.	.
.	.	[16e	lead	B	.	.
=14	=14	=14	=14	=14	=14	=14
2F#mm	F#:min9	4e]	_	.	33.362	.
.	.	4r	.	.	.	.
2BMm	B:maj6(b7)	2r	.	.	34.605	.
=15	=15	=15	=15	=15	=15	=15
*>Letter>C	*>Letter>C	*>Letter>C	*>Letter>C	*>Letter>C	*>Letter>C	*>Letter>C
*>Label>Prechorus	*>Label>Prechorus	*>Label>Prechorus	*>Label>Prechorus	*>Label>Prechorus	*>Label>Prechorus	*>Label>Prechorus
1DM	D:maj	8r	.	.	35.848	newline
.	.	16r	.	.	.	.
.	.	16A	I'm	.	.	.
.	.	16d	in	C	.	.
.	.	8d	a	.	.	.
.	.	[16f#	spin	C	.	.
.	.	16f#]	_	.	.	.
.	.	16f#	you	.	.	.
.	.	4a	know	.	.	.
.	.	8r	.	.	.	.
=16	=16	=16	=16	=16	=16	=16
1EM	E:maj	8e	shak-	.	38.346	.
.	.	8e	-ing	d	.	.
.	.	8e	on	.	.	.
.	.	8e	a	.	.	.
.	.	8g#	string	D	.	.
.	.	16g#	you	.	.	.
.	.	[16b	know	.	.	.
.	.	4b]	_	.	.	.
=17	=17	=17	=17	=17	=17	=17
*>Letter>D	*>Letter>D	*>Letter>D	*>Letter>D	*>Letter>D	*>Letter>D	*>Letter>D
*>Label>Chorus	*>Label>Chorus	*>Label>Chorus	*>Label>Chorus	*>Label>Chorus	*>Label>Chorus	*>Label>Chorus
*F#:	*F#:	*F#:	*	*	*F#:	*F#:
2F#M	F#:maj	8r	.	.	40.844	newline
.	.	8a#	You	.	.	.
.	.	8a#	make	.	.	.
.	.	8a#	me	.	.	.
2D#mm	D#:min7	8.a#	feel	.	42.086	.
.	.	[16a#	like	.	.	.
.	.	8a#]	_	.	.	.
.	.	[8a#	dan-	.	.	.
=18	=18	=18	=18	=18	=18	=18
2G#mm	G#:min7	8a#]	_	.	43.328	.
.	.	8.g#	-cin'	.	.	.
.	.	16c#	I'm	.	.	.
.	.	16d#	gon-	.	.	.
.	.	16c#	-na	.	.	.
2C#Mm	C#:7	8f#	dance	.	44.571	.
.	.	16d#	the	.	.	.
.	.	[16f#	night	.	.	.
.	.	16f#]	_	.	.	.
.	.	16f#	a-	.	.	.
.	.	8c#	-way	.	.	.
=19	=19	=19	=19	=19	=19	=19
2F#M	F#:maj	8r	.	.	45.813	.
.	.	8a#	You	.	.	.
.	.	8cc#	make	.	.	.
.	.	8a#	me	.	.	.
2D#mm	D#:min7	8.cc#	feel	.	47.055	.
.	.	[16dd#	like	.	.	.
.	.	8dd#]	_	.	.	.
.	.	8a	dan-	.	.	.
=20	=20	=20	=20	=20	=20	=20
2G#mm	G#:min7	8g#	_	.	48.298	.
.	.	8.f#	-cin'	.	.	.
.	.	16c#	I'm	.	.	.
.	.	16d#	gon-	.	.	.
.	.	16c#	-na	.	.	.
2C#Mm	C#:7	8f#	dance	.	49.54	.
.	.	16d#	the	.	.	.
.	.	[16f#	night	.	.	.
.	.	16f#]	_	.	.	.
.	.	16f#	a-	.	.	.
.	.	8c#	-way	.	.	.
=21	=21	=21	=21	=21	=21	=21
*	*	*F#:	*	*	*	*
2F#M	F#:maj	8r	.	.	50.782	newline
.	.	8a#	You	.	.	.
.	.	8a#	make	.	.	.
.	.	8a#	me	.	.	.
2D#mm	D#:min7	8.a#	feel	.	52.024	.
.	.	[16a#	like	.	.	.
.	.	8a#]	_	.	.	.
.	.	[8a#	dan-	.	.	.
=22	=22	=22	=22	=22	=22	=22
2G#mm	G#:min7	8a#]	_	.	53.267	.
.	.	4.g#	-cin'	.	.	.
2C#Mm	C#:7	8r	.	.	54.509	.
.	.	16d#	I	.	.	.
.	.	[16f#	feel	.	.	.
.	.	16f#]	_	.	.	.
.	.	8.f#	like	.	.	.
=23	=23	=23	=23	=23	=23	=23
*E:	*E:	*E:	*	*	*E:	*E:
1F#mm	F#:min7	16a	dan-	.	55.751	newline
.	.	8g#	_	.	.	.
.	.	16f#	-cin'	.	.	.
.	.	4r	.	.	.	.
.	.	16a	dan-	.	.	.
.	.	8g#	_	.	.	.
.	.	16f#	-cin'	.	.	.
.	.	4r	.	.	.	.
=24	=24	=24	=24	=24	=24	=24
1F#mm	F#:min7	8e	dance	.	58.195	.
.	.	16f#	the	.	.	.
.	.	[16f#	night	.	.	.
.	.	16f#]	_	.	.	.
.	.	16e	a-	.	.	.
.	.	8f#	-way	.	.	.
.	.	8r	.	.	.	.
.	.	8f#	I	.	.	.
.	.	8f#	feel	.	.	.
.	.	8f#	like	.	.	.
=25	=25	=25	=25	=25	=25	=25
1BM	B:sus4(b7,9)	16a	dan-	.	60.639	.
.	.	8g#	_	.	.	.
.	.	16f#	-cin'	.	.	.
.	.	4r	.	.	.	.
.	.	16r	.	.	.	.
.	.	16a	dan-	.	.	.
.	.	8g#	_	.	.	.
.	.	8.f#	-cin'	.	.	.
.	.	[16b	ah	.	.	.
=26	=26	=26	=26	=26	=26	=26
1BM	B:sus4(b7,9)	4b_	_	.	63.083	.
.	.	16b]	_	.	.	.
.	.	16cc#	_	.	.	.
.	.	8b	_	.	.	.
.	.	16cc#	_	.	.	.
.	.	[8.b	_	.	.	.
.	.	8b]	_	.	.	.
.	.	8r	.	.	.	.
=27	=27	=27	=27	=27	=27	=27
*>Letter>B	*>Letter>B	*>Letter>B	*>Letter>B	*>Letter>B	*>Letter>B	*>Letter>B
*>Label>Verse	*>Label>Verse	*>Label>Verse	*>Label>Verse	*>Label>Verse	*>Label>Verse	*>Label>Verse
2EM	E:maj	8r	.	.	65.527	newline
.	.	8ee	Quar-	E	.	.
.	.	8cc#	-ter	.	.	.
.	.	8b	to	.	.	.
2C#mm	C#:min7	8g#	four	E	66.781	.
.	.	8b	in	.	.	.
.	.	8cc#	the	.	.	.
.	.	8g	mor-	E	.	.
=28	=28	=28	=28	=28	=28	=28
2F#mm	F#:min9	8f#	_	.	68.034	.
.	.	4.e	-ning	.	.	.
2BMm	B:maj6(b7)	2r	.	.	69.288	.
=29	=29	=29	=29	=29	=29	=29
2EM	E:maj	16r	.	.	70.542	.
.	.	16b	I	.	.	.
.	.	8ee	ain't	.	.	.
.	.	16cc#	feel-	.	.	.
.	.	8b	-ing	.	.	.
.	.	[16ee	tired	.	.	.
2C#mm	C#:min7	8ee]	_	.	71.796	.
.	.	8cc#	no	F	.	.
.	.	8b	no	F	.	.
.	.	8g#	no	F	.	.
=30	=30	=30	=30	=30	=30	=30
2F#mm	F#:min9	8f#	no	F	73.05	.
.	.	8e	no	F	.	.
.	.	4r	.	.	.	.
2BMm	B:maj6(b7)	2r	.	.	74.304	.
=31	=31	=31	=31	=31	=31	=31
2EM	E:maj	8r	.	.	75.558	newline
.	.	8b	just	.	.	.
.	.	8ee	hold	.	.	.
.	.	16b	me	.	.	.
.	.	[16ee	tight	G	.	.
2C#mm	C#:min7	8ee]	_	.	76.812	.
.	.	8r	.	.	.	.
.	.	16r	.	.	.	.
.	.	16b	and	.	.	.
.	.	16a	leave	.	.	.
.	.	[16b	on	.	.	.
=32	=32	=32	=32	=32	=32	=32
2F#mm	F#:min9	16b]	_	.	78.065	.
.	.	8a	the	.	.	.
.	.	8g#	light	G	.	.
.	.	8e	_	.	.	.
.	.	16r	.	.	.	.
2BMm	B:maj6(b7)	4r	.	.	79.319	.
.	.	4r	.	.	.	.
=33	=33	=33	=33	=33	=33	=33
2EM	E:maj	8r	.	.	80.573	.
.	.	16g#	'cause	.	.	.
.	.	8b	I	.	.	.
.	.	8g#	don't	.	.	.
.	.	8.cc#	wan-	.	.	.
2C#mm	C#:min7	.	.	.	81.827	.
.	.	8ee	-na	.	.	.
.	.	8.cc#	go	.	.	.
.	.	[16cc#	home	F	.	.
=34	=34	=34	=34	=34	=34	=34
2F#mm	F#:min9	8cc#]	_	.	83.081	.
.	.	16dd#	_	.	.	.
.	.	16cc#	_	.	.	.
.	.	4b	_	.	.	.
2BMm	B:maj6(b7)	4r	.	.	84.335	.
.	.	4r	.	.	.	.
=35	=35	=35	=35	=35	=35	=35
*>Letter>C	*>Letter>C	*>Letter>C	*>Letter>C	*>Letter>C	*>Letter>C	*>Letter>C
*>Label>Prechorus	*>Label>Prechorus	*>Label>Prechorus	*>Label>Prechorus	*>Label>Prechorus	*>Label>Prechorus	*>Label>Prechorus
1DM	D:maj	8r	.	.	85.589	newline
.	.	16r	.	.	.	.
.	.	16d	You	.	.	.
.	.	16d	put	.	.	.
.	.	8d	a	.	.	.
.	.	[16f#	spell	.	.	.
.	.	16f#]	_	.	.	.
.	.	16f#	on	.	.	.
.	.	4a	me	B	.	.
.	.	16r	.	.	.	.
.	.	16d	I'm	.	.	.
=36	=36	=36	=36	=36	=36	=36
1EM	E:maj	8e	right	.	88.073	.
.	.	8e	where	.	.	.
.	.	8e	you	.	.	.
.	.	8e	want	.	.	.
.	.	8g#	me	.	.	.
.	.	16g#	to	.	.	.
.	.	[16b	be	B	.	.
.	.	4b]	_	.	.	.
=37	=37	=37	=37	=37	=37	=37
*>Letter>D	*>Letter>D	*>Letter>D	*>Letter>D	*>Letter>D	*>Letter>D	*>Letter>D
*>Label>Chorus	*>Label>Chorus	*>Label>Chorus	*>Label>Chorus	*>Label>Chorus	*>Label>Chorus	*>Label>Chorus
*F#:	*F#:	*F#:	*	*	*F#:	*F#:
2F#M	F#:maj	8r	.	.	90.558	newline
.	.	8a#	You	.	.	.
.	.	8a#	make	.	.	.
.	.	8a#	me	.	.	.
2D#mm	D#:min7	8.a#	feel	.	91.82	.
.	.	[16a#	like	.	.	.
.	.	8a#]	_	.	.	.
.	.	[8a#	dan-	.	.	.
=38	=38	=38	=38	=38	=38	=38
2G#mm	G#:min7	8a#]	_	.	93.083	.
.	.	8.g#	-cin'	.	.	.
.	.	16c#	I'm	.	.	.
.	.	16d#	gon-	.	.	.
.	.	16c#	-na	.	.	.
2C#Mm	C#:7	8f#	dance	.	94.346	.
.	.	16d#	the	.	.	.
.	.	[16f#	night	.	.	.
.	.	16f#]	_	.	.	.
.	.	16f#	a-	.	.	.
.	.	8c#	-way	.	.	.
=39	=39	=39	=39	=39	=39	=39
2F#M	F#:maj	8r	.	.	95.608	.
.	.	8a#	you	.	.	.
.	.	8a#	make	.	.	.
.	.	8a#	me	.	.	.
2D#mm	D#:min7	8.cc#	feel	.	96.871	.
.	.	[16a#	like	.	.	.
.	.	8a#]	_	.	.	.
.	.	[8a#	dan-	.	.	.
=40	=40	=40	=40	=40	=40	=40
2G#mm	G#:min7	8a#]	_	.	98.133	.
.	.	8.g#	-cin'	.	.	.
.	.	16c#	I'm	.	.	.
.	.	16d#	gon-	.	.	.
.	.	16c#	-na	.	.	.
2C#Mm	C#:7	8f#	dance	.	99.396	.
.	.	16d#	the	.	.	.
.	.	[16f#	night	.	.	.
.	.	16f#]	_	.	.	.
.	.	16f#	a-	.	.	.
.	.	8c#	-way	.	.	.
=41	=41	=41	=41	=41	=41	=41
2F#M	F#:maj	8r	.	.	100.659	newline
.	.	8a#	You	.	.	.
.	.	8a#	make	.	.	.
.	.	8a#	me	.	.	.
2D#mm	D#:min7	8.cc#	feel	.	101.892	.
.	.	[16dd#	like	.	.	.
.	.	8dd#]	_	.	.	.
.	.	[8dd#	dan-	.	.	.
=42	=42	=42	=42	=42	=42	=42
2G#mm	G#:min7	8dd#]	_	.	103.125	.
.	.	4.cc#	-cin	.	.	.
2C#Mm	C#:7	8r	.	.	104.358	.
.	.	16d#	I	.	.	.
.	.	[16f#	feel	.	.	.
.	.	16f#]	_	.	.	.
.	.	8.f#	like	.	.	.
=43	=43	=43	=43	=43	=43	=43
*E:	*E:	*E:	*	*	*E:	*E:
1F#mm	F#:min7	16a	dan-	.	105.591	newline
.	.	8g#	_	.	.	.
.	.	16f#	-cin	.	.	.
.	.	4r	.	.	.	.
.	.	16a	dan-	.	.	.
.	.	8g#	_	.	.	.
.	.	16f#	-cin'	.	.	.
.	.	4r	.	.	.	.
=44	=44	=44	=44	=44	=44	=44
1F#mm	F#:min7	8e	dance	.	108.023	.
.	.	16f#	the	.	.	.
.	.	[16f#	night	.	.	.
.	.	16f#]	_	.	.	.
.	.	16e	a-	.	.	.
.	.	8f#	-way	.	.	.
.	.	8r	.	.	.	.
.	.	8f#	I	.	.	.
.	.	8f#	feel	.	.	.
.	.	8f#	like	.	.	.
=45	=45	=45	=45	=45	=45	=45
1BMm	B:sus4(b7,9)	16a	dan-	.	110.456	.
.	.	8g#	_	.	.	.
.	.	16f#	-cin'	.	.	.
.	.	4r	.	.	.	.
.	.	16a	dan-	.	.	.
.	.	8g#	_	.	.	.
.	.	16f#	-cin'	.	.	.
.	.	4r	.	.	.	.
=46	=46	=46	=46	=46	=46	=46
1BMm	B:sus4(b7,9)	8e	dance	.	112.888	.
.	.	16f#	the	.	.	.
.	.	[16f#	night	.	.	.
.	.	16f#]	_	.	.	.
.	.	16e	a-	.	.	.
.	.	8f#	-way	.	.	.
.	.	8r	.	.	.	.
.	.	8b	I	.	.	.
.	.	8b	feel	.	.	.
.	.	8f#	like	.	.	.
=47	=47	=47	=47	=47	=47	=47
1F#mm	F#:min7	16a	dan-	.	115.32	newline
.	.	8g#	_	.	.	.
.	.	16f#	-cin	.	.	.
.	.	4r	.	.	.	.
.	.	16a	dan-	.	.	.
.	.	8g#	_	.	.	.
.	.	16f#	-cin'	.	.	.
.	.	4r	.	.	.	.
=48	=48	=48	=48	=48	=48	=48
1F#mm	F#:min7	8e	dance	.	117.747	.
.	.	16f#	the	.	.	.
.	.	[16f#	night	.	.	.
.	.	16f#]	_	.	.	.
.	.	16e	a-	.	.	.
.	.	8f#	-way	.	.	.
.	.	8r	.	.	.	.
.	.	8f#	I	.	.	.
.	.	8f#	feel	.	.	.
.	.	8f#	like	.	.	.
=49	=49	=49	=49	=49	=49	=49
1BMm	B:sus4(b7,9)	16a	dan-	.	120.174	.
.	.	8g#	_	.	.	.
.	.	16f#	-cin'	.	.	.
.	.	4r	.	.	.	.
.	.	16a	dan-	.	.	.
.	.	8g#	_	.	.	.
.	.	16f#	-cin'	.	.	.
.	.	8r	.	.	.	.
.	.	[8b	ah	.	.	.
=50	=50	=50	=50	=50	=50	=50
1BMm	B:sus4(b7,9)	4b]	_	.	122.601	.
.	.	16cc#	_	.	.	.
.	.	16b	_	.	.	.
.	.	8cc#	_	.	.	.
.	.	2b	_	.	.	.
=51	=51	=51	=51	=51	=51	=51
*>Letter>B	*>Letter>B	*>Letter>B	*>Letter>B	*>Letter>B	*>Letter>B	*>Letter>B
*>Label>Instrumental	*>Label>Instrumental	*>Label>Instrumental	*>Label>Instrumental	*>Label>Instrumental	*>Label>Instrumental	*>Label>Instrumental
2EM	E:maj	1r	.	.	125.028	newline
2C#mm	C#:min7	.	.	.	126.278	.
=52	=52	=52	=52	=52	=52	=52
2F#mm	F#:min9	1r	.	.	127.527	.
2BMm	B:maj6(b7)	.	.	.	128.777	.
=53	=53	=53	=53	=53	=53	=53
2EM	E:maj	1r	.	.	130.026	.
2C#mm	C#:min7	.	.	.	131.276	.
=54	=54	=54	=54	=54	=54	=54
2F#mm	F#:min9	1r	.	.	132.525	.
2BMm	B:maj6(b7)	.	.	.	133.775	.
=55	=55	=55	=55	=55	=55	=55
2EM	E:maj	1r	.	.	135.024	newline
2C#mm	C#:min7	.	.	.	136.255	.
=56	=56	=56	=56	=56	=56	=56
2F#mm	F#:min9	1r	.	.	137.485	.
2BMm	B:maj6(b7)	.	.	.	138.716	.
=57	=57	=57	=57	=57	=57	=57
*>Letter>C	*>Letter>C	*>Letter>C	*>Letter>C	*>Letter>C	*>Letter>C	*>Letter>C
*>Label>Prechorus	*>Label>Prechorus	*>Label>Prechorus	*>Label>Prechorus	*>Label>Prechorus	*>Label>Prechorus	*>Label>Prechorus
1DM	D:maj	8r	.	.	139.947	newline
.	.	8d	and	.	.	.
.	.	8d	if	.	.	.
.	.	8e	you'll	.	.	.
.	.	8f#	let	.	.	.
.	.	8f#	me	.	.	.
.	.	4a	stay	H	.	.
=58	=58	=58	=58	=58	=58	=58
1EM	E:maj	8r	.	.	142.473	.
.	.	8e	we'll	.	.	.
.	.	8e	dance	.	.	.
.	.	8f#	our	.	.	.
.	.	8g#	lives	.	.	.
.	.	16g#	a-	.	.	.
.	.	[16b	-way	H	.	.
.	.	4b]	_	.	.	.
=59	=59	=59	=59	=59	=59	=59
*>Letter>D	*>Letter>D	*>Letter>D	*>Letter>D	*>Letter>D	*>Letter>D	*>Letter>D
*>Label>Chorus	*>Label>Chorus	*>Label>Chorus	*>Label>Chorus	*>Label>Chorus	*>Label>Chorus	*>Label>Chorus
*F#:	*F#:	*F#:	*	*	*F#:	*F#:
2F#M	F#:maj	8r	.	.	145	newline
.	.	8a#	You	.	.	.
.	.	8a#	make	.	.	.
.	.	8a#	me	.	.	.
2D#mm	D#:min7	8.a#	feel	.	146.24	.
.	.	8.a#	like	.	.	.
.	.	[8a#	dan-	.	.	.
=60	=60	=60	=60	=60	=60	=60
2G#mm	G#:min7	8a#]	_	.	147.481	.
.	.	8.g#	-cin'	.	.	.
.	.	16c#	I	.	.	.
.	.	16d#	wan-	.	.	.
.	.	16c#	-na	.	.	.
2C#Mm	C#:7	8f#	dance	.	148.722	.
.	.	16d#	my	.	.	.
.	.	[16f#	life	.	.	.
.	.	16f#]	_	.	.	.
.	.	16f#	a-	.	.	.
.	.	8c#	-way	.	.	.
=61	=61	=61	=61	=61	=61	=61
2F#M	F#:maj	8r	.	.	149.962	.
.	.	8a#	you	.	.	.
.	.	8cc#	make	.	.	.
.	.	8a#	me	.	.	.
2D#mm	D#:min7	8.cc#	feel	.	151.203	.
.	.	[16dd#	like	.	.	.
.	.	8dd#]	_	.	.	.
.	.	8a#	dan-	.	.	.
=62	=62	=62	=62	=62	=62	=62
2G#mm	G#:min7	8g#	_	.	152.444	.
.	.	8.f#	-cin'	.	.	.
.	.	16c#	I	.	.	.
.	.	16d#	wan-	.	.	.
.	.	16c#	-na	.	.	.
2C#Mm	C#:7	8f#	dance	.	153.685	.
.	.	16d#	my	.	.	.
.	.	[16f#	life	.	.	.
.	.	16f#]	_	.	.	.
.	.	16f#	a-	.	.	.
.	.	8c#	-way	.	.	.
=63	=63	=63	=63	=63	=63	=63
*>Label>>Fadeout	*>Label>>Fadeout	*>Label>>Fadeout	*>Label>>Fadeout	*>Label>>Fadeout	*>Label>>Fadeout	*>Label>>Fadeout
2F#M	F#:maj	8r	.	.	154.925	newline
.	.	8a#	you	.	.	.
.	.	8cc#	make	.	.	.
.	.	8a#	me	.	.	.
2D#mm	D#:min7	8.cc#	feel	.	156.173	.
.	.	[16cc#	like	.	.	.
.	.	8cc#]	_	.	.	.
.	.	[8dd#	dan-	.	.	.
=64	=64	=64	=64	=64	=64	=64
2G#mm	G#:min7	8dd#]	_	.	157.42	.
.	.	8.cc#	-cin'	.	.	.
.	.	16c#	I'm	.	.	.
.	.	16d#	gon	.	.	.
.	.	16c#	na	.	.	.
2C#Mm	C#:7	8f#	dance	.	158.668	.
.	.	16d#	my	.	.	.
.	.	[16f#	life	.	.	.
.	.	16f#]	_	.	.	.
.	.	16f#	a	.	.	.
.	.	8c#	way	.	.	.
=65	=65	=65	=65	=65	=65	=65
2F#M	F#:maj	8r	.	.	159.915	.
.	.	8cc#	you	.	.	.
.	.	8cc#	make	.	.	.
.	.	8dd#	me	.	.	.
2D#mm	D#:min7	8.ff#	feel	.	161.163	.
.	.	[16dd#	like	.	.	.
.	.	8dd#]	_	.	.	.
.	.	[8dd#	dan-	.	.	.
=66	=66	=66	=66	=66	=66	=66
2G#mm	G#:min7	8dd#]	_	.	162.411	.
.	.	8.cc#	-cin'	.	.	.
.	.	16c#	I'm	.	.	.
.	.	16d#	gon	.	.	.
.	.	16c#	na	.	.	.
2C#Mm	C#:7	8f#	dance	.	163.658	.
.	.	16d#	my	.	.	.
.	.	[16f#	life	.	.	.
.	.	16f#]	_	.	.	.
.	.	16f#	a-	.	.	.
.	.	8c#	-way	.	.	.
=67	=67	=67	=67	=67	=67	=67
2F#M	F#:maj	8r	.	.	164.906	newline
.	.	8a#	You	.	.	.
.	.	8a#	make	.	.	.
.	.	8a#	me	.	.	.
2D#mm	D#:min7	8.a#	feel	.	165.603	.
.	.	[16a#	like	.	.	.
.	.	8a#]	_	.	.	.
.	.	[8a#	dan-	.	.	.
=68	=68	=68	=68	=68	=68	=68
2G#mm	G#:min7	8a#]	_	.	166.299	.
.	.	8.g#	-cin'	.	.	.
.	.	16c#	I	.	.	.
.	.	16d#	wan-	.	.	.
.	.	16c#	-na	.	.	.
2C#Mm	C#:7	8f#	dance	.	166.996	.
.	.	16d#	my	.	.	.
.	.	[16f#	life	.	.	.
.	.	16f#]	_	.	.	.
.	.	16f#	a-	.	.	.
.	.	8c#	-way	.	.	.
1r;	1r	r;	.	.	170.481	.
1r;	1r	r;	.	.	174.341	.
*-	*-	*-	*-	*-	*-	*-
!!!BillboardChartDate: 1977/01/22
!!!BillboardPeak: 1
!!!BillboardWeeksOnChart: 21
!!!COC: Leo Sayer
!!!EMD: Changed stuff written in Gb to F# (closer to E Major). Cut off two measures at end. -Nat
!!!ENC: Nathaniel Condit-Schultz
!!!EST: Awating manual error checking and editing.
!!!OTL: You Make Me Feel Like Dancing
!!!RDF**chordsym: original McGill chord annotation + (implied pitch class set, with bass pitch in first position)
!!!RDF**harmony: **recip + pitch class of root + harmonic quality
!!!RDF**leadinstrument: original McGill primary instrumentation annotation
!!!RDF**phrase: newline = linebreak in original McGill transcription
!!!RDF**timestamp: McGill audio timestamp in seconds
!!!RDT: 2017/01/12/
!!!SampleActualRank: 3
!!!SampleID#: 0986
!!!SampleTargetRank: 3
!!!MBID: 7b909503-5268-4b8b-89ac-f3feecd6eae4